img/icon/milk.svg

<svg xmlns="http://www.w3.org/2000/svg" width="100" height="100" viewBox="0 0 100 100"><path fill="#324D5B" d="M50 0c27.614 0 50 22.386 50 50s-22.386 50-50 50-50-22.386-50-50 22.386-50 50-50z"/><path fill="#EEF3F3" d="M19.001 89.216c8.522 6.745 19.286 10.784 30.999 10.784 3.781 0 7.459-.434 11-1.229v-31.771l-41.997-20.004-.002 42.22z"/><path fill="#D8D8D8" d="M61.012 98.769c10.183-2.29 19.195-7.673 25.979-15.129v-29.639l-25.979 13.072v31.696z"/><path fill="#C0C0C0" d="M60 67l13-20 14 7v1l-26 13-1-1z"/><path fill="#909090" d="M69 45l18 9-18-3v-6z"/><path fill="#3DBEE9" d="M32 28l.833-1.417 40.73 19.167.229 1.667-12.792 19.583v1l-42-20v-1l13-19z"/><path fill="#EEF3F3" d="M34.621 17.25l36.547 17.524c1.449.714 2.624 2.741 2.624 4.527v8.115l-41.792-19.416-.004-8.81c0-1.786 1.175-2.655 2.625-1.94z"/><path fill="#D6DADA" d="M49.068 41.381c1.914 1.914 2.606 4.618.361 7.723-2.246 3.104-6.049 4.678-8.493 3.517-2.445-1.162-2.936-2.621-2.936-2.621s8.913-9.904 10-10c.029-.002.262.573 1.068 1.381z"/><path fill="#EEF3F3" d="M47.068 39.381c2.445 1.161 2.606 4.619.36 7.723-2.245 3.104-6.048 4.678-8.492 3.517-2.445-1.161-2.606-4.619-.361-7.723 2.246-3.104 6.049-4.678 8.493-3.517z"/><path fill="#37ABD1" d="M43.895 27.081l16.211 7.482c.498.261.901.999.901 1.649s-.403.967-.901.707l-16.211-7.483c-.498-.26-.901-.998-.901-1.649-.001-.65.402-.967.901-.706z"/><path fill="#40A8CA" d="M67.795 74.455l14.41-7.276c.995-.503 1.802.107 1.802 1.363v6.821c0 1.255-.807 2.681-1.802 3.183l-14.41 7.276c-.995.502-1.802-.108-1.802-1.364v-6.82c0-1.256.807-2.681 1.802-3.183z"/><g fill="#37ABD1"><path d="M19.006 66.34l41.988 19.667v-4.346l-41.988-19.668zM19.006 89.22c8.521 6.743 19.283 10.78 30.994 10.78 3.779 0 7.455-.433 10.994-1.228v-9.111l-41.988-19.668v19.227z"/></g></svg>

<svg xmlns="http://www.w3.org/2000/svg" width="100" height="100" viewBox="0 0 100 100"><path fill="#324D5B" d="M50 0c27.614 0 50 22.386 50 50s-22.386 50-50 50S0 77.614 0 50 22.386 0 50 0z"/><path fill="#EEF3F3" d="M19 89.216C27.524 95.96 38.288 100 50 100c3.78 0 7.46-.434 11-1.23V67L19.003 46.996 19 89.216z"/><path fill="#D8D8D8" d="M61.012 98.77c10.183-2.29 19.195-7.674 25.98-15.13V54L61.01 67.074V98.77z"/><path fill="#C0C0C0" d="M60 67l13-20 14 7v1L61 68l-1-1z"/><path fill="#909090" d="M69 45l18 9-18-3v-6z"/><path fill="#3DBEE9" d="M32 28l.833-1.417 40.73 19.167.23 1.667L61 67v1L19 48v-1l13-19z"/><path fill="#EEF3F3" d="M34.62 17.25L71.17 34.774c1.45.714 2.624 2.74 2.624 4.527v8.116L32 28l-.004-8.81c0-1.786 1.175-2.655 2.625-1.94z"/><path fill="#D6DADA" d="M49.068 41.38c1.914 1.915 2.606 4.62.36 7.724-2.245 3.104-6.048 4.678-8.492 3.517C38.49 51.46 38 50 38 50s8.913-9.904 10-10c.03-.002.262.573 1.068 1.38z"/><path fill="#EEF3F3" d="M47.068 39.38c2.445 1.162 2.606 4.62.36 7.724-2.245 3.104-6.048 4.678-8.492 3.517-2.445-1.16-2.606-4.618-.36-7.722 2.245-3.104 6.048-4.678 8.492-3.517z"/><path fill="#37ABD1" d="M43.895 27.08l16.21 7.483c.5.26.902 1 .902 1.65s-.403.966-.9.706l-16.212-7.484c-.498-.26-.9-.998-.9-1.65-.002-.65.4-.966.9-.705z"/><path fill="#40A8CA" d="M67.795 74.455l14.41-7.276c.995-.504 1.802.106 1.802 1.362v6.82c0 1.256-.807 2.682-1.802 3.184l-14.41 7.276c-.995.502-1.802-.108-1.802-1.364v-6.82c0-1.256.807-2.68 1.802-3.183z"/><path d="M19.006 66.34l41.988 19.667V81.66L19.006 61.994zm0 22.88C27.526 95.963 38.29 100 50 100c3.78 0 7.455-.433 10.994-1.228v-9.11L19.006 69.99V89.22z" fill="#37ABD1"/></svg>
